X: 54
T: I See You
N: (Game Song. For directions see page 8.)
O: Swedish
%R: air, march
B: "The Everyday Song Book", 1927
F: http://www.library.pitt.edu/happybirthday/pdf/The_Everyday_Song_Book.pdf
Z: 2017 John Chambers <jc:trillian.mit.edu>
M: 2/4
L: 1/8
K: G
% - - - - - - - - - - - - - - -
"^I"B | G2 D B | G2 D z | B B/ B/ A A/ A/ | G G D |
w: I see you, I see you, Tra, la, la, la, la, la, la, la, la;
%
"^I"B | G2 D B | G2 D z | B B/ B/ A A/ A/ | G G G |] "^II"B |
w: I see you, I see you, Tra, la, la, la, la, la, la, la, la. If
%
B d d B | A c c A | G B B G | F A A A |
w: I see you then you see me, If I take you then you take me. If
%
B d d B | A c c A | G B B G | F A G2 |]
w: you see me then I see you, If you take me then I take you.
% - - - - - - - - - - - - - - -

%%sep 1 1 500
%%sep 1 1 500

